img/svg/net/barca.svg

<?xml version="1.0" encoding="iso-8859-1"?>
<!-- Generator: Adobe Illustrator 21.0.2, SVG Export Plug-In . SVG Version: 6.00 Build 0)  -->
<svg version="1.1" id="&#x56FE;&#x5C42;_1" xmlns="http://www.w3.org/2000/svg" xmlns:xlink="http://www.w3.org/1999/xlink" x="0px"
	 y="0px" viewBox="0 0 16 16" style="enable-background:new 0 0 16 16;" xml:space="preserve">
<path style="fill-rule:evenodd;clip-rule:evenodd;" d="M6.933,8.375C8,9.206,8,9.206,9.067,8.375l5.919-4.133
	C14.992,4.29,15,4.338,15,4.387v6.039v1.485c0,0.547-0.451,0.99-1.006,0.99H2.006C1.45,12.901,1,12.458,1,11.911V8.545V4.387
	C1,4.338,1.008,4.29,1.014,4.242L6.933,8.375L6.933,8.375z M14.418,3.195L8.653,7.178C8,7.616,8,7.616,7.34,7.178l-5.763-3.98
	c0.13-0.06,0.274-0.097,0.428-0.097h11.989C14.146,3.101,14.289,3.136,14.418,3.195L14.418,3.195z"/>
</svg>

<svg xmlns="http://www.w3.org/2000/svg" viewBox="0 0 16 16"><title>barca</title><path d="M6.93,8.38c1.07.83,1.07.83,2.13,0L15,4.24a1,1,0,0,1,0,.14v7.52a1,1,0,0,1-1,1H2a1,1,0,0,1-1-1V4.39a1,1,0,0,1,0-.14L6.93,8.38ZM14.42,3.2l-5.77,4c-.65.44-.65.44-1.31,0l-5.76-4A1,1,0,0,1,2,3.1H14a1,1,0,0,1,.42.09Z" style="fill-rule:evenodd"/></svg>
